X: 7968
T:Tune from Micho Russell, 1
R:Reel
M:4/4
O:Ireland
Z:transcribed by Andy Hornby, from a recording of a session.
K:D
d|\
BdAG FDDE| FDAD FDDd|BdAG FGAF\
|1 E2EF G3 :|2 E2EF G4 ||
d2df a2z2| g2fg eAA2| d2df a2fa| bfaf e2ef|\
a2fg fede| defd cBA2| d2ed d2ag| faeg fd d|]
